X:1
T:Brahms' Lullaby 
T:for Flute and Piano
T:Johanes Brahms (1833-1897)
%%score 1 { ( 2 4 ) | ( 3 5 ) }
L:1/8
Q:1/4=80
M:3/4
K:D
V:1 treble nm="Flute" snm="Fl."
V:2 treble nm="Piano" snm="Pno."
V:4 treble 
V:3 bass 
V:5 bass 
V:1
 z6 | z6 | z4 ((.F.F)) | (A3 F) F2 | A2 z2 (FA) | d2 (c3 B) | (B2 A2) (EF) | (G2 E2) (EF) | %8
 G2 z2 (EG) | (cB) (A2 c2) | d2 z2 (.D.D) |{/D} d4 (.B.G) | A4 (.F.D) | %13
 G2 (!tenuto!A2 !tenuto!B2) |{/F} A4 (.D.D) |{/D} d4 (.B.G) | A4 (.F.D) | (G-(3G/A/G/) (F2 E2) | %18
 D6- | D2 z2 (.f.f) | (a3 f) f2 | a4 (fa) | d'2 (c'3 b) | (b2 a2) (ef) | (g2 e2) (ef) | g4 (eg) | %26
 (c'b) (a2 c'2) | d'4 (.d.d) | d'4 bg | a4 fd | g2 (!tenuto!a2 !tenuto!b2) |{/f} a4 (.d.d) | %32
 (d'4 bg) | (a4 fd) | (g-(3g/a/g/) (f2 e2) | d4 z2 | z6 | z6 | (3z (A_B (3d=cd _e>e) | %39
 _e2 (!tenuto!d2 =c2) | =c2 (=B3 G) | ^G6 | (G2 (3G)(e=f) (g>.g) | (g2 ^c2) (a2 | ^g3) d (d>^c) | %45
 (=f2 (3e)(ef g>.g) | (g2 ^c2) g2 | ^g2- (3g(de (3=f^cd) | (=f2 (3e)(ef (3ged) | %49
 (3(ce_B (3AGA (3BG=F) | (3(EG_B (3^ceB (3ABA) | (3(_BAB (3ABA (3BAB | .A2) z4 | g6- | g6- | %55
 g4 f(f | a3 f) (f2 | a4) (fa | d'2) (!tenuto!c'2 !tenuto!b2) | (b2 a2) (ef | g3 e) (e2 | g4) (eg | %62
 c'b) (a2 c'2) | d'4 (.d.d) | d'2- (3d'bg (3dGb | a2- (3afd (3Adf | g2 (!tenuto!a2 !tenuto!b2) | %67
{/f} a4 (.d.d) | d'2- (3d'_bg (3dGb | a2- (3afd (3Adf | g2- (3g_e_B (3GBg | =f2- (3fd_B (3=FBd | %72
 d6 | E2 (3:2:2z2 (E (3G_Bd) | d6- | d6- | d4 z2 | z6 | z6 | z6 | z4 DD | (d4 BG) | (A4 FD) | %83
[Q:1/4=60] (G-(3G/A/G/) (F2 E2) |[Q:1/4=30] D4 z2 |] %85
V:2
 z4 z ([FA]- | [FA][DF]) [FA]2 z ([FA]- | [FA][DF]) [FA]2 z ([FA]- | [FA] [DF]2 A,2) ([FA]- | %4
 [FA] [DF]2 A,2) ([FA]- | [FA] [df]2 [df]2 [df]- | [df] [cg]2 [Gc]2) [FA]- | %7
 [FA] [EG]2 [A,E]2 ([GB]- | [GB] [EG]2 [A,E]2) ([GB]- | [GB] [EG]2 [Gc]2 [Ge]- | %10
 [Ge] [Fd]2 [FA]2) ([F=cd]- | [Fcd][GB] [Bd]3) [GB] | ([FA][DF]) [FA]3 [DF] | %13
 ([CE][A,C][CE][G,B,][CE][F,A,]) | [DF]4 z ([D=cd]- | [Dcd][GB] [Bd]3) [GB] | %16
 ([FA][DF]) [FA]3 [DF] | ([CE]A[DF]B[EG]c) | d6- | d2 z2 ([FA][FA]- | [FA] [DF]2 A,2) [FA]- | %21
 [FA] [DF]2 A,2 ([FA]- | [FA] [df]2 [df]2 [df]- | [df] [cg]2 [Gc]2) [FA]- | %24
 [FA] [EG]2 [A,E]2 ([GB]- | [GB] [EG]2 [A,E]2) [GB]- | [GB] [EG]2 [Gc]2 [Ge]- | %27
 [Ge] [Fd]2 [FA]2 ([F=cd]- | ([Fcd][GB]) [Bd]3) [GB] | (([FA][DF]) [FA]3 [DF]) | ([CE]G[CE]A[CE]B | %31
 [DF]) ([DF]2 [FA]2) (([D=c-d-] | ([Bcd][GB]) [Bd]3)) [GB] | [FA][DF] [FA]3 [DF] | %34
 [CE]G[CE]A[CE]B | [=F,D=F]3 [_B,D] [B,D]2 | [=F,D=F]2 z2 .[_B,D].[DF] | %37
 .[_B,D_B]2 .[B,DA]2 .[B,G]2 | G2 =F2 A,2 | [^G,=C]2 [G,C^G]2 [G,C=F]2 | [G,D=F]2 (3z de =f2 | %41
 [=F=f]2 [E^Ge]2 [DGd]2 | .[Dd]2 [Cc]2 [d^a]2 | [ca]2- (3[ca]cd [ce]>[ce] | [^Gd]4 (3D^G,^G | %45
 [=G,C=G]3 z (3EC=A | z2 (3_B,CE (3G_Bc | [D^Gd]4 (3D^G,G | .[=G,C=G]3 z z2 | z6 | z6 | z6 | %52
 (3ABA (3BAB (3ABA | (3BAB (3ABA (3BAB | (3ABA (3BAB (3ABA | [Gce]4 d2 | (3[df]AF (3DA,F, .A,2 | %57
 (3[dfa]AF (3DA,F, .A,2 | (3[Bg]dB (3GDB, .[G,D]2 | (3[cg]AG (3ECA, .[G,C]2 | %60
 (3[_Bc]GE (3C_B,G, .B,2 | (3[=Bd]GE (3DB,G, .B,2 | (3[Ae]GE (3CA,G, .A,2 | (3[df]AF (3DA,F, .A,2 | %64
 (3[gb]dB G z !arpeggio![GBdg]2 | (3[df]AF D z !arpeggio![DFAd]2 | (3[Bc]eG (3[Ac]eG (3[ce]gG | %67
 (3[df]AF (3DFA (3dfa | (3[dg]_BG D z !arpeggio![DFAd]2 | (3[df]AF D z !arpeggio![A,DFA]2 | %70
 [G,_B,G]2 [A,A]2 [B,_E_B]2 | [_B,D_B]4 [=F,D=F]2 | [E,DE]2- (3[E,DE]E,^A, .D2 | [E,DE]4 [E,DE]2 | %74
 D6- | [=F,D=F]6 | F4 dd | d'4 bg | a4 fd | g2 a2 b2 |{/!fermata!f} !fermata!a4 z2 | z B2 z B2 | %82
 z A2 A2 A!p! | B2 z A z G | F4 z2 |] %85
V:3
 z6 | D,,2 (F,2 A,,2) | D,,2 ((F,2 A,,2)) | D,,2 ((F,2 A,,2)) | D,,2 ((F,2 A,,2)) | %5
 D,,2 (A,2 A,,2) | D,,2 ((E,2 A,,2)) | D,,2 (((E,2 A,,2))) | D,,2 (((E,2 A,,2))) | %9
 D,,2 (A,2 A,,2) | D,,2 ((A,2 D,2)) | D,,2 (G,2 G,,2) | D,,2 (F,2 A,,2) | D,,2 ((E,2 A,,2)) | %14
 D,,2 (F,2 A,,2) | D,,2 (G,2 A,,2) | D,,2 (F,2 A,,2) | D,,2 (A,2 A,,2) | D,,A,,D,A,,F,D, | %19
 A,F,D,A,,D,A,, | D,,2 (([D,F,]2 A,,2)) | D,,2 (([D,F,]2 A,,2)) | D,,2 ([D,F,]2 A,,2) | %23
 D,,2 (([E,A,]2 A,,2)) | A,,,2 ((([E,C]2 A,,2))) | A,,,2 ((([E,C]2 A,,2))) | A,,,2 ([E,A,]2 A,,2) | %27
 D,,2 ((((([F,A,]2 D,2))))) | [G,,,G,,]2 (([D,G,]2 G,,2)) | D,,2 ((([D,F,]2 A,,2))) | %30
 D,,2 ((([E,G,]2 A,,2))) | D,,2 (((([F,A,]2 D,2)))) | [G,,,G,,]2 (([G,B,]2 D,2)) | %33
 D,,2 [D,F,A,]2 A,,2 | A,,,2 z2 C,2 | (3_B,,,=F,,_B,, (3F,,B,,,B,, (3F,,B,,,B,, | %36
 (3_B,,,=F,,_B,, (3F,,B,,,B,, (3F,,B,,,B,, | (3_B,,,=F,,_B,, (3F,,B,,=F, (3D,,B,,D, | %38
 (3=C,,=F,,=C, (3F,,C,,C, (3F,,C,,C, | (3_A,,=C,=F, (3=F,,C,F, (3D,,A,,D, | %40
 (3_A,,D,G, (3D,G,,G, (3B,,G,,G, | (3E,,=B,,^G, (3B,,E,,G, (3B,,E,,E, | %42
 (3A,,E,A, (3E,A,,A, (3E,A,,A, | (3E,C,A, (3E,A,,A, (3E,C,A,, | (3_B,,,=F,,_B,, (3D,=F,_B, z2 | %45
 (3A,,,A,,C, (3E,A,C z2 | (3A,,E,G, z2 z2 | (3_B,,,=F,,_B,, (3D,=F,_B, z2 | (3A,,,E,,A,, C, z z2 | %49
 z6 | z6 | z6 | z6 | z6 | z6 | (3A,,,A,,A,,, (3A,,A,,,A,, (3A,,,A,,A,,, | A,,4- (3A,,A,,A,,, | %57
 A,,4- (3A,,A,,A,,, | A,,4- (3A,,A,,A,,, | A,,4- (3A,,A,,A,,, | A,,4- (3A,,A,,A,,, | %61
 A,,4- (3A,,A,,A,,, | A,,4- (3A,,A,,A,,, | A,,4- (3A,,A,,A,,, | A,,2- (3A,,A,,,A,, (3A,,,A,,A,,, | %65
 A,,2- (3A,,A,,,A,, (3A,,,A,,A,,, | A,,2 [A,,,A,,]2 [A,,,A,,]2 | [A,,,A,,]6 | %68
 [_B,,,_B,,]2- (3[B,,,B,,]G,,B,, .D,2 | [D,,A,,]2- (3[D,,A,,]A,,D, .F,2 | %70
 [_E,,_E,]2- (3[E,,E,]_B,,E, .G,2 | [_B,,,=F,,_B,,]2- (3[B,,,F,,B,,]B,,,F,, [B,,D,]2 | %72
 [G,,_B,,D,]4 D,,2- | G,,2 A,,2 _B,,2 | [D,,B,,]6- | [D,,B,,]6 | D,,A,, D,F, A,2 | G,,D, B,2 G,2 | %78
 D,,2 [F,A,]2 A,,2 | E,,2 [G,B,]2 E,2 | D,,2 !fermata![F,A,]2 z2 | G,,2 [G,B,]2 E,2 | %82
 D,,2 [F,A,]2 A,,2 | E,,2 [A,C]2 A,,2 | D,,2 [A,,D,F,]2 z2 |] %85
V:4
 x6 | x6 | x6 | x6 | x6 | x6 | x6 | x6 | x6 | x6 | x6 | x6 | x6 | x6 | x6 | x6 | x6 | x6 | [FA]6- | %19
 [FA]2 x4 | x6 | x6 | x6 | x6 | x6 | x6 | x6 | x6 | x6 | x6 | x6 | x6 | x6 | x6 | x6 | x6 | x6 | %37
 x6 | [A,E]4 x2 | x6 | x6 | x6 | G4 z2 | x6 | x6 | x6 | x6 | x6 | x6 | x6 | x6 | x6 | x6 | x6 | %54
 x6 | x4 FA | x6 | x6 | x6 | x6 | x6 | x6 | x6 | x6 | x6 | x6 | x6 | x6 | x6 | x6 | x6 | x6 | x6 | %73
 x6 | [E,E]6 | x6 | x6 | x6 | x6 | x6 | x6 | x6 | x6 | x6 | x6 |] %85
V:5
 x6 | x6 | x6 | x6 | x6 | x6 | x6 | x6 | x6 | x6 | x6 | x6 | x6 | x6 | x6 | x6 | x6 | x6 | x6 | %19
 x6 | x6 | x6 | x6 | x6 | x6 | x6 | x6 | x6 | x6 | x6 | x6 | x6 | x6 | x6 | x2 A,,4 | x6 | x6 | %37
 x6 | x6 | x6 | x6 | x6 | x6 | x6 | _B,,,6 | A,,,6 | A,,6 | _B,,,6 | x6 | x6 | x6 | x6 | x6 | x6 | %54
 x6 | x6 | x6 | x6 | x6 | x6 | x6 | x6 | x6 | x6 | x6 | x6 | x6 | x6 | x6 | x6 | x6 | x6 | x6 | %73
 D,,6 | x6 | x6 | x6 | x6 | x6 | x6 | x6 | x6 | x6 | x6 | x6 |] %85

